icons/customerio-logo.svg

<?xml version="1.0" encoding="UTF-8"?>
<svg width="512px" height="94px" viewBox="0 0 512 94" version="1.1" xmlns="http://www.w3.org/2000/svg" xmlns:xlink="http://www.w3.org/1999/xlink" preserveAspectRatio="xMidYMid">
    <g>
        <path d="M66.5861642,53.3462485 C77.3754384,53.3462485 87.102091,46.8462602 91.2297748,36.8777766 C95.3574587,26.9092931 93.0731139,15.4358746 85.4421204,7.80853058 C77.8111269,0.181186542 66.3366171,-2.09766964 56.3701091,2.0347822 C46.4036012,6.16723404 39.9082707,15.8969948 39.9134275,26.6862678 C39.9134275,33.7591441 42.7239918,40.5421476 47.7264666,45.5422301 C52.7289415,50.5423126 59.5132886,53.3496296 66.5861642,53.3462485 L66.5861642,53.3462485 Z" fill="#FFCD00"></path>
        <path d="M66.7519918,66.6762342 L66.6627,66.6762342 C48.3670679,66.6716135 32.40307,54.262756 27.8845507,36.5338768 C26.5451739,31.2018812 22.208144,26.6862678 16.7103209,26.6862678 L0,26.6862678 C0,63.5030604 29.8459074,93.3489678 66.6627,93.3489678 L66.7519918,93.3489678 L66.7519918,66.6762342 Z" fill="#00ECBB"></path>
        <path d="M66.5861642,66.6762342 L66.6627,66.6762342 C84.9598865,66.676145 100.926338,54.2653804 105.440849,36.5338768 C106.792982,31.2018812 111.130012,26.6862678 116.627835,26.6862678 L133.338156,26.6862678 C133.331112,63.5051237 103.481557,93.3489678 66.6627,93.3489678 L66.5861642,93.3489678 L66.5861642,66.6762342 Z" fill="#AF64FF"></path>
        <path d="M113.808766,73.8195775 C101.306918,86.3225071 84.3501252,93.3466708 66.669078,93.3466708 C48.9880307,93.3466708 32.0312375,86.3225071 19.5293903,73.8195775 L38.3827142,54.9662536 C54.0077033,70.5814706 79.3304527,70.5814706 94.9554418,54.9662536 L113.808766,73.8195775 Z" fill="#7131FF"></path>
        <path d="M465.414327,25.3468909 L472.74901,25.3468909 L472.74901,56.5735059 L465.414327,56.5735059 L465.414327,25.3468909 Z M469.113558,20.2445029 C467.875551,20.2729353 466.675718,19.8149837 465.771494,18.9689059 C464.887262,18.1629724 464.394322,17.0143281 464.419361,15.8181812 C464.403735,14.6533624 464.89761,13.5398123 465.771494,12.7695044 C466.671209,11.9162349 467.874122,11.4571075 469.113558,11.4939074 C470.350394,11.4722114 471.547783,11.9292303 472.455622,12.7695044 C473.331076,13.5114117 473.827382,14.6070302 473.807755,15.7544014 C473.827446,16.9866843 473.338317,18.1725927 472.455622,19.0326857 C471.54638,19.8601269 470.340506,20.2835637 469.113558,20.206235 L469.113558,20.2445029 Z M454.61002,56.9816969 C453.317068,57.0104298 452.069252,56.5059083 451.159609,55.5866143 C450.249967,54.6673204 449.758643,53.4142492 449.801019,52.1216723 C449.754095,50.8168434 450.242583,49.5495393 451.153152,48.6137805 C452.081679,47.7256986 453.325531,47.2437635 454.61002,47.2744036 C455.901778,47.2421014 457.149727,47.7437055 458.059795,48.6610155 C458.969863,49.5783255 459.46156,50.8302111 459.419021,52.1216723 C459.465157,53.4153076 458.975051,54.6705771 458.064574,55.5907143 C457.154098,56.5108515 455.90407,57.0141773 454.61002,56.9816969 L454.61002,56.9816969 Z M486.716797,54.9407417 C492.122189,57.6569531 498.493696,57.6569531 503.899089,54.9407417 C506.36725,53.6392191 508.421911,51.6729312 509.830615,49.264335 C511.289834,46.7427998 512.039179,43.8732475 511.99913,40.9601984 C512.046308,38.0664444 511.296069,35.2155345 509.830615,32.7198417 C508.414805,30.3033877 506.345498,28.3357768 503.860821,27.043435 C498.455428,24.3272235 492.083922,24.3272235 486.678529,27.043435 C484.198326,28.3466753 482.127585,30.3114507 480.695979,32.7198417 C479.258611,35.2248677 478.526854,38.0725496 478.578488,40.9601984 C478.533577,43.8672613 479.264507,46.7337386 480.695979,49.264335 C482.143734,51.6733331 484.226791,53.6372319 486.716797,54.9407417 L486.716797,54.9407417 Z M501.960181,48.0397618 C498.219148,51.6098227 492.332958,51.6098227 488.591925,48.0397618 C486.83417,46.1129102 485.916139,43.5653731 486.040731,40.9601984 C485.916139,38.3550237 486.83417,35.8074866 488.591925,33.880635 C492.325072,30.2909411 498.227034,30.2909411 501.960181,33.880635 C503.762873,35.7854606 504.715691,38.3401169 504.600667,40.9601984 C504.715691,43.5802799 503.762873,46.1349362 501.960181,48.0397618 L501.960181,48.0397618 Z M294.66291,54.8642059 C293.733511,55.6010954 292.660308,56.1355243 291.512186,56.4331902 C290.267167,56.7848718 288.979122,56.9609045 287.685395,56.956185 C284.794986,57.1427277 281.947902,56.1799456 279.763937,54.2774312 C277.776752,52.1939482 276.762173,49.3679542 276.97038,46.4962894 L276.97038,18.7010305 L284.241283,18.7010305 L284.241283,25.7805939 L292.570931,25.7805939 L292.570931,31.5973163 L284.241283,31.5973163 L284.241283,46.3559738 C284.159793,47.6150622 284.556078,48.8585779 285.351052,49.8383536 C286.207143,50.6590145 287.369687,51.0804943 288.552801,50.9991469 C290.018721,51.0491374 291.458095,50.5993331 292.634711,49.7235499 L294.66291,54.8642059 Z M189.566472,56.956185 C186.552275,57.0041767 183.572823,56.3075106 180.892413,54.9279857 C178.40862,53.6426019 176.33244,51.6901086 174.897107,49.2898469 C173.440539,46.7863804 172.69515,43.9327314 172.741348,41.0367342 C172.689795,38.1602466 173.435964,35.3256871 174.897107,32.8474014 C176.31825,30.458376 178.370649,28.5074942 180.828633,27.2092626 C183.529794,25.8239845 186.531283,25.1272886 189.566472,25.1810633 C192.358883,25.11942 195.12209,25.7597821 197.602734,27.043435 C199.87261,28.2278383 201.701638,30.1105304 202.819925,32.4136984 L197.271078,35.7302506 C196.46841,34.3497377 195.298159,33.2192311 193.890746,32.4647223 C192.550233,31.7306304 191.043731,31.352907 189.515449,31.3677088 C186.994784,31.2880351 184.553084,32.2527143 182.76754,34.0337066 C180.932781,35.8999909 179.96159,38.448211 180.088787,41.0622462 C179.947743,43.6736898 180.867763,46.2313456 182.639981,48.1545656 C185.690201,50.9797134 190.171494,51.6198981 193.890746,49.7618178 C195.281158,48.989888 196.446262,47.8687507 197.271078,46.5090454 L202.819925,49.7618178 C201.641022,52.0539377 199.795393,53.9351454 197.526198,55.1575932 C195.070305,56.4175462 192.338747,57.044533 189.579228,56.9816969 L189.566472,56.956185 Z M249.519532,55.9739753 C251.931582,56.6262028 254.419318,56.9561851 256.917995,56.9561851 C261.267781,56.9561851 264.711893,56.088779 267.224819,54.4049909 C269.631743,52.9134358 271.083265,50.2716655 271.05161,47.4402312 C271.166537,45.5752859 270.5382,43.7407267 269.304042,42.3378432 C268.189196,41.1521792 266.787816,40.2735714 265.234887,39.7866491 C263.227569,39.2135219 261.181212,38.7871975 259.112022,38.5110521 C257.238247,38.1740365 255.398327,37.6702995 253.614199,37.0058476 C252.523935,36.6456184 251.808661,35.6014228 251.866631,34.4546536 C251.863534,33.3612797 252.495755,32.365656 253.486639,31.9034596 C255.009298,31.1648019 256.695205,30.8267423 258.384931,30.9212499 C261.51662,30.8724144 264.602802,31.6748218 267.31411,33.2428365 L270.120424,27.7195014 C268.482453,26.8141302 266.713807,26.1686392 264.87772,25.8061059 C262.787258,25.31354 260.647431,25.0610404 258.499735,25.0535036 C254.965389,24.874412 251.463698,25.8067093 248.486299,27.7195014 C246.140023,29.2782641 244.757778,31.931982 244.825335,34.7480409 C244.709129,36.6690542 245.32951,38.5621302 246.560147,40.0417685 C247.730502,41.2211351 249.171127,42.0968947 250.756861,42.5929626 C252.819644,43.1841204 254.920907,43.6316509 257.045554,43.9323394 C258.849204,44.1648746 260.626246,44.5706894 262.352038,45.1441566 C263.365173,45.4288264 264.057617,46.3625761 264.035826,47.4147193 C264.035826,49.7022899 261.863059,50.8418233 257.517525,50.8333193 C255.547438,50.8235614 253.587291,50.5533441 251.688047,50.0296932 C249.918417,49.5235658 248.233397,48.7584291 246.687707,47.7591305 L243.894149,53.2824656 C245.622722,54.504236 247.546557,55.4230184 249.583312,55.9994872 L249.519532,55.9739753 Z M305.04627,54.9279857 C310.41411,57.6320977 316.745918,57.6320977 322.113758,54.9279857 C324.559658,53.6314165 326.595956,51.6790436 327.99426,49.2898469 C329.444847,46.783917 330.189795,43.9319549 330.150019,41.0367342 C330.194959,38.1610461 329.449253,35.3282474 327.99426,32.8474014 C326.595956,30.4582046 324.559658,28.5058318 322.113758,27.2092626 C316.745918,24.5051506 310.41411,24.5051506 305.04627,27.2092626 C302.589356,28.5136203 300.534315,30.4628222 299.101988,32.8474014 C297.684774,35.3409456 296.962347,38.1689849 297.010009,41.0367342 C296.966998,43.9241564 297.688749,46.7715515 299.101988,49.2898469 C300.548091,51.6924162 302.626392,53.651578 305.11005,54.9534976 L305.04627,54.9279857 Z M320.187607,48.0652738 C316.481924,51.6372643 310.614325,51.6372643 306.908642,48.0652738 C305.15385,46.1570722 304.235221,43.6262493 304.357448,41.0367342 C304.238079,38.4476534 305.156321,35.9178964 306.908642,34.0081947 C310.622257,30.4559185 316.473991,30.4559185 320.187607,34.0081947 C321.975619,35.8999307 322.919293,38.4363439 322.802581,41.0367342 C322.946397,43.637116 322.025291,46.183974 320.251387,48.0907857 L320.187607,48.0652738 Z M376.313875,25.1810633 C379.76037,25.0026781 383.12972,26.242562 385.63849,28.6124193 C387.921808,30.85747 389.069846,34.2378021 389.069846,38.8171954 L389.069846,56.5735059 L381.786187,56.5735059 L381.786187,39.7228693 C381.989176,37.5567409 381.400022,35.390466 380.12791,33.6255156 C378.806159,32.1817956 376.902649,31.4128901 374.948987,31.5335365 C372.722923,31.4392168 370.569484,32.3360939 369.068484,33.9826827 C367.460573,35.8893392 366.651634,38.3435783 366.810678,40.8326387 L366.810678,56.5735059 L359.527019,56.5735059 L359.527019,39.7228693 C359.689806,37.5392289 359.050287,35.371216 357.728427,33.6255156 C356.405603,32.1833424 354.502863,31.4147482 352.549503,31.5335365 C350.31695,31.435127 348.15045,32.3045166 346.605221,33.9189029 C345.031086,35.8659043 344.247778,38.3342375 344.411194,40.8326387 L344.411194,56.5735059 L337.127535,56.5735059 L337.127535,39.2126305 C337.127535,30.5130588 343.722372,25.1810633 352.332651,25.1810633 C355.086498,25.1445598 357.824892,25.5980793 360.419937,26.5204402 C362.210577,27.331376 363.713701,28.6655097 364.731454,30.3472312 C366.041006,28.6836104 367.741099,27.369105 369.680771,26.5204402 C371.802628,25.5949062 374.101777,25.1463979 376.415923,25.2065753 L376.313875,25.1810633 Z M427.873507,43.3838327 C427.950043,42.4568989 427.98831,41.7425646 427.98831,41.2408297 C428.052425,38.3225021 427.353291,35.4380248 425.960111,32.8729133 C424.684145,30.4869954 422.737413,28.5269606 420.36024,27.2347745 C417.891172,25.8556741 415.100611,25.1558331 412.272955,25.2065753 C409.385072,25.1608702 406.534048,25.8593493 403.994331,27.2347745 C401.583675,28.5633397 399.591376,30.5379686 398.241388,32.9366932 C396.856975,35.4180569 396.152887,38.2212068 396.200433,41.0622462 C396.151296,43.9503831 396.873446,46.7993531 398.292412,49.3153588 C399.749033,51.7257722 401.852694,53.6791719 404.364254,54.9534976 C409.462869,57.3667354 415.315528,57.6377769 420.61536,55.7060999 C422.67262,54.8940537 424.492908,53.578183 425.909087,51.8793088 L422.00576,47.4019633 C419.783771,49.6530416 416.722593,50.8738136 413.561308,50.7695394 C411.157616,50.8556355 408.790535,50.1620674 406.8134,48.7923641 C405.051161,47.4810041 403.855812,45.5465466 403.471336,43.3838327 L427.873507,43.3838327 Z M406.328673,33.1025208 C407.986436,31.6996984 410.102006,30.955163 412.272955,31.0105417 C414.44203,30.9424804 416.558025,31.688767 418.204481,33.1025208 C419.802677,34.503754 420.821395,36.4502331 421.061819,38.562076 L403.420312,38.562076 C403.677639,36.4440417 404.71446,34.4977277 406.328673,33.1025208 L406.328673,33.1025208 Z M452.977256,25.2065753 L452.977256,32.1203111 C452.422446,32.010666 451.858935,31.9508996 451.293468,31.9417275 C448.816745,31.8119042 446.401263,32.7391526 444.647607,34.4929215 C442.944144,36.4475708 442.086202,38.9984567 442.262241,41.5852409 L442.262241,56.5735059 L434.978582,56.5735059 L434.978582,40.9346865 C434.978582,29.594629 442.262241,23.7906626 452.977256,25.2065753 Z M223.369793,56.9816969 C219.211347,56.9816969 214.785025,55.8336596 212.386903,53.5503409 C209.988781,51.2670223 208.827987,47.7973984 208.827987,43.269029 L208.827987,25.5254745 L216.111646,25.5254745 L216.111646,42.2868193 C215.940488,44.536539 216.603425,46.7705484 217.974018,48.5627566 C221.068849,51.2642392 225.683493,51.2642392 228.778325,48.5627566 C230.143541,46.7678175 230.805859,44.5358954 230.640696,42.2868193 L230.640696,25.5254745 L237.924355,25.5254745 L237.924355,43.269029 C237.924355,47.8016504 236.73805,51.2287544 234.36544,53.5503409 C231.941805,55.8336596 227.489972,56.9816969 223.344281,56.9816969 L223.369793,56.9816969 Z" fill="#2F326A"></path>
    </g>
</svg>

<svg xmlns="http://www.w3.org/2000/svg" viewBox="0 0 512.001 93.349">
  <path fill="#ffcd00" d="M66.586 53.346a26.673 26.673 0 1 0-26.673-26.66 26.66 26.66 0 0 0 26.673 26.66z"/>
  <path fill="#00ecbb" d="M66.752 66.676h-.09c-18.295-.004-34.259-12.413-38.777-30.142-1.34-5.332-5.677-9.848-11.175-9.848H0C0 63.503 29.846 93.35 66.663 93.35h.089z"/>
  <path fill="#af64ff" d="M66.586 66.676h.077c18.297 0 34.263-12.41 38.778-30.142 1.352-5.332 5.689-9.848 11.187-9.848h16.71c-.007 36.82-29.856 66.663-66.675 66.663h-.077z"/>
  <path fill="#7131ff" d="M113.809 73.82a66.663 66.663 0 0 1-94.28 0l18.854-18.854c15.625 15.615 40.947 15.615 56.572 0z"/>
  <path fill="#2f326a" d="M465.414 25.347h7.335v31.227h-7.335zm3.7-5.102a4.732 4.732 0 0 1-3.343-1.276 4.146 4.146 0 0 1-1.352-3.15 3.993 3.993 0 0 1 1.352-3.05 4.656 4.656 0 0 1 3.343-1.275 4.796 4.796 0 0 1 3.342 1.276 3.827 3.827 0 0 1 1.352 2.984 4.477 4.477 0 0 1-1.352 3.279 4.541 4.541 0 0 1-3.342 1.173zM454.61 56.982a4.707 4.707 0 0 1-4.809-4.86 4.784 4.784 0 0 1 1.352-3.508 4.835 4.835 0 0 1 3.457-1.34 4.694 4.694 0 0 1 4.809 4.848 4.694 4.694 0 0 1-4.809 4.86zm32.107-2.041a19.134 19.134 0 0 0 17.182 0 14.95 14.95 0 0 0 5.932-5.677 16.136 16.136 0 0 0 2.168-8.304 15.766 15.766 0 0 0-2.168-8.24 14.874 14.874 0 0 0-5.97-5.677 19.134 19.134 0 0 0-17.182 0 15.167 15.167 0 0 0-5.983 5.677 15.983 15.983 0 0 0-2.118 8.24 16.353 16.353 0 0 0 2.118 8.304 15.307 15.307 0 0 0 6.02 5.677zm15.243-6.901a9.682 9.682 0 0 1-13.368 0 9.81 9.81 0 0 1-2.551-7.08 9.81 9.81 0 0 1 2.55-7.08 9.644 9.644 0 0 1 13.37 0 9.682 9.682 0 0 1 2.64 7.08 9.682 9.682 0 0 1-2.64 7.08zm-207.297 6.824a8.508 8.508 0 0 1-3.15 1.57 13.891 13.891 0 0 1-3.828.522 10.983 10.983 0 0 1-7.921-2.679 10.205 10.205 0 0 1-2.794-7.78V18.7h7.271v7.08h8.33v5.816h-8.33v14.759a5.013 5.013 0 0 0 1.11 3.482A4.21 4.21 0 0 0 288.553 51c1.466.05 2.905-.4 4.082-1.275zm-105.097 2.092a18.318 18.318 0 0 1-8.674-2.028 15.04 15.04 0 0 1-5.995-5.638 15.907 15.907 0 0 1-2.156-8.253 15.575 15.575 0 0 1 2.156-8.19 15.116 15.116 0 0 1 5.932-5.638 18.432 18.432 0 0 1 8.737-2.028 16.685 16.685 0 0 1 8.037 1.862 11.94 11.94 0 0 1 5.217 5.37l-5.549 3.317a8.623 8.623 0 0 0-3.38-3.265 8.93 8.93 0 0 0-4.376-1.097 9.146 9.146 0 0 0-6.747 2.666 9.376 9.376 0 0 0-2.68 7.028 9.695 9.695 0 0 0 2.552 7.093 9.988 9.988 0 0 0 11.25 1.607 9.146 9.146 0 0 0 3.381-3.253l5.549 3.253a12.756 12.756 0 0 1-5.294 5.396 16.583 16.583 0 0 1-7.947 1.824zm59.954-.982c2.412.652 4.9.982 7.398.982 4.35 0 7.794-.867 10.307-2.551a8.087 8.087 0 0 0 3.827-6.965 7.067 7.067 0 0 0-1.748-5.102 9.478 9.478 0 0 0-4.07-2.551c-2.006-.573-4.053-1-6.122-1.276a31.967 31.967 0 0 1-5.498-1.505 2.551 2.551 0 0 1-1.747-2.551 2.806 2.806 0 0 1 1.62-2.552 9.95 9.95 0 0 1 4.898-.982 17.297 17.297 0 0 1 8.93 2.322l2.805-5.523a18.075 18.075 0 0 0-5.242-1.914 28.242 28.242 0 0 0-6.378-.752 16.94 16.94 0 0 0-10.014 2.666 8.202 8.202 0 0 0-3.66 7.028 7.564 7.564 0 0 0 1.734 5.294 10.205 10.205 0 0 0 4.197 2.551 46.457 46.457 0 0 0 6.289 1.34c1.803.232 3.58.638 5.306 1.211a2.309 2.309 0 0 1 1.684 2.27c0 2.288-2.173 3.428-6.518 3.42a22.35 22.35 0 0 1-5.83-.804 18.662 18.662 0 0 1-5-2.27l-2.794 5.522a18.662 18.662 0 0 0 5.69 2.717zm55.526-1.046a18.968 18.968 0 0 0 17.068 0 14.899 14.899 0 0 0 5.88-5.638 16.034 16.034 0 0 0 2.156-8.253c.045-2.876-.7-5.709-2.156-8.19a14.899 14.899 0 0 0-5.88-5.638 18.968 18.968 0 0 0-17.068 0 15.307 15.307 0 0 0-5.944 5.638 16.034 16.034 0 0 0-2.092 8.19 16.366 16.366 0 0 0 2.092 8.253 15.307 15.307 0 0 0 6.008 5.663zm15.142-6.863a9.567 9.567 0 0 1-13.28 0 9.707 9.707 0 0 1-2.55-7.028 9.733 9.733 0 0 1 2.55-7.029 9.605 9.605 0 0 1 13.28 0 9.605 9.605 0 0 1 2.615 7.029 9.58 9.58 0 0 1-2.552 7.054zm56.126-22.884a12.628 12.628 0 0 1 9.324 3.431c2.284 2.245 3.432 5.626 3.432 10.205v17.757h-7.284V39.723a8.993 8.993 0 0 0-1.658-6.097 6.48 6.48 0 0 0-5.179-2.092 7.526 7.526 0 0 0-5.88 2.449 9.669 9.669 0 0 0-2.258 6.85v15.74h-7.284v-16.85a8.993 8.993 0 0 0-1.799-6.097 6.493 6.493 0 0 0-5.179-2.092 7.756 7.756 0 0 0-5.944 2.385 9.962 9.962 0 0 0-2.194 6.914v15.74h-7.283v-17.36c0-8.7 6.594-14.032 15.205-14.032a23.229 23.229 0 0 1 8.087 1.34 9.733 9.733 0 0 1 4.311 3.826 12.858 12.858 0 0 1 4.95-3.827 15.817 15.817 0 0 1 6.735-1.313zm51.56 18.203c.076-.927.114-1.641.114-2.143a16.761 16.761 0 0 0-2.028-8.368 13.853 13.853 0 0 0-5.6-5.638 15.996 15.996 0 0 0-8.087-2.028 16.825 16.825 0 0 0-8.279 2.028 14.797 14.797 0 0 0-5.753 5.702 16.124 16.124 0 0 0-2.04 8.125 16.239 16.239 0 0 0 2.091 8.253 15.052 15.052 0 0 0 6.072 5.638 21.098 21.098 0 0 0 16.251.753 13.202 13.202 0 0 0 5.294-3.827l-3.903-4.477a11.34 11.34 0 0 1-8.445 3.368 11.149 11.149 0 0 1-6.748-1.978 8.623 8.623 0 0 1-3.342-5.408zm-21.545-10.281a8.853 8.853 0 0 1 5.944-2.092 8.687 8.687 0 0 1 5.931 2.092 8.547 8.547 0 0 1 2.858 5.46H403.42a8.585 8.585 0 0 1 2.909-5.46zm46.648-7.896v6.913a9.478 9.478 0 0 0-1.684-.178 8.75 8.75 0 0 0-6.645 2.55 9.784 9.784 0 0 0-2.386 7.093v14.989h-7.283v-15.64c0-11.34 7.283-17.143 17.998-15.727zM223.37 56.982c-4.159 0-8.585-1.148-10.983-3.432-2.398-2.283-3.559-5.753-3.559-10.281V25.525h7.284v16.762a9.184 9.184 0 0 0 1.862 6.276 8.215 8.215 0 0 0 10.804 0 9.248 9.248 0 0 0 1.863-6.276V25.525h7.283V43.27c0 4.533-1.186 7.96-3.559 10.281-2.423 2.284-6.875 3.432-11.02 3.432z"/>
</svg>
